example.svg

<?xml version="1.0" encoding="UTF-8"?>
<svg xmlns="http://www.w3.org/2000/svg" xmlns:xlink="http://www.w3.org/1999/xlink"
     width="200" height="200" viewBox="-100.0 -100.0 200 200">
<defs>
</defs>
<path d="M0,-5 l5,5 l15,-5 l15,5 l15,0 l0,-10 l-5,-10 l5,-10 l0,-3 l-2,-5 l2,-4 l0,-8 l-5,5 l0,3 l-7,4 l-3,3 l-5,15 l-10,0 l-10,10 Z" stroke-width="0.5" stroke="green" fill="yellow" fill-opacity="0.6" />
<path d="M0,5 l5,-5 l15,5 l15,-5 l15,0 l0,10 l-5,10 l5,10 l0,3 l-2,5 l2,4 l0,8 l-5,-5 l0,-3 l-7,-4 l-3,-3 l-5,-15 l-10,0 l-10,-10 Z" stroke-width="0.5" stroke="green" fill="orange" fill-opacity="0.6" />
<path d="M0,-5 l-5,5 l-15,-5 l-15,5 l-15,0 l0,-10 l5,-10 l-5,-10 l0,-3 l2,-5 l-2,-4 l0,-8 l5,5 l0,3 l7,4 l3,3 l5,15 l10,0 l10,10 Z" stroke-width="0.5" stroke="green" fill="red" fill-opacity="0.6" />
<path d="M100,5 l-5,-5 l-15,5 l-15,-5 l-15,0 l0,10 l5,10 l-5,10 l0,3 l2,5 l-2,4 l0,8 l5,-5 l0,-3 l7,-4 l3,-3 l5,-15 l10,0 l10,-10 Z" stroke-width="0.5" stroke="green" fill="purple" fill-opacity="0.6" />
<path d="M5,0 l-5,-5 l5,-15 l-5,-15 l0,-15 l10,0 l10,5 l10,-5 l3,0 l5,2 l4,-2 l8,0 l-5,5 l-3,0 l-4,7 l-3,3 l-15,5 l0,10 l-10,10 Z" stroke-width="0.5" stroke="green" fill="blue" fill-opacity="0.6" />
<path d="M5,0 l-5,5 l5,15 l-5,15 l0,15 l10,0 l10,-5 l10,5 l3,0 l5,-2 l4,2 l8,0 l-5,-5 l-3,0 l-4,-7 l-3,-3 l-15,-5 l0,-10 l-10,-10 Z" stroke-width="0.5" stroke="green" fill="green" fill-opacity="0.6" />
<path d="M0,5 l-5,-5 l-15,5 l-15,-5 l-15,0 l0,10 l5,10 l-5,10 l0,3 l2,5 l-2,4 l0,8 l5,-5 l0,-3 l7,-4 l3,-3 l5,-15 l10,0 l10,-10 Z" stroke-width="0.5" stroke="green" fill="orange" fill-opacity="0.6" />
<path d="M-5,0 l5,5 l-5,15 l5,15 l0,15 l-10,0 l-10,-5 l-10,5 l-3,0 l-5,-2 l-4,2 l-8,0 l5,-5 l3,0 l4,-7 l3,-3 l15,-5 l0,-10 l10,-10 Z" stroke-width="0.5" stroke="green" fill="blue" fill-opacity="0.6" />
<path d="M-5,0 l5,-5 l-5,-15 l5,-15 l0,-15 l-10,0 l-10,5 l-10,-5 l-3,0 l-5,2 l-4,-2 l-8,0 l5,5 l3,0 l4,7 l3,3 l15,5 l0,10 l10,10 Z" stroke-width="0.5" stroke="green" fill="yellow" fill-opacity="0.6" />
<path d="M100,-5 l-5,5 l-15,-5 l-15,5 l-15,0 l0,-10 l5,-10 l-5,-10 l0,-3 l2,-5 l-2,-4 l0,-8 l5,5 l0,3 l7,4 l3,3 l5,15 l10,0 l10,10 Z" stroke-width="0.5" stroke="green" fill="brown" fill-opacity="0.6" />
<path d="M-100,-5 l5,5 l15,-5 l15,5 l15,0 l0,-10 l-5,-10 l5,-10 l0,-3 l-2,-5 l2,-4 l0,-8 l-5,5 l0,3 l-7,4 l-3,3 l-5,15 l-10,0 l-10,10 Z" stroke-width="0.5" stroke="green" fill="brown" fill-opacity="0.6" />
<path d="M5,100 l-5,-5 l5,-15 l-5,-15 l0,-15 l10,0 l10,5 l10,-5 l3,0 l5,2 l4,-2 l8,0 l-5,5 l-3,0 l-4,7 l-3,3 l-15,5 l0,10 l-10,10 Z" stroke-width="0.5" stroke="green" fill="brown" fill-opacity="0.6" />
<path d="M5,-100 l-5,5 l5,15 l-5,15 l0,15 l10,0 l10,-5 l10,5 l3,0 l5,-2 l4,2 l8,0 l-5,-5 l-3,0 l-4,-7 l-3,-3 l-15,-5 l0,-10 l-10,-10 Z" stroke-width="0.5" stroke="green" fill="brown" fill-opacity="0.6" />
<path d="M-5,100 l5,-5 l-5,-15 l5,-15 l0,-15 l-10,0 l-10,5 l-10,-5 l-3,0 l-5,2 l-4,-2 l-8,0 l5,5 l3,0 l4,7 l3,3 l15,5 l0,10 l10,10 Z" stroke-width="0.5" stroke="green" fill="red" fill-opacity="0.6" />
<path d="M-100,5 l5,-5 l15,5 l15,-5 l15,0 l0,10 l-5,10 l5,10 l0,3 l-2,5 l2,4 l0,8 l-5,-5 l0,-3 l-7,-4 l-3,-3 l-5,-15 l-10,0 l-10,-10 Z" stroke-width="0.5" stroke="green" fill="green" fill-opacity="0.6" />
<path d="M-5,-100 l5,5 l-5,15 l5,15 l0,15 l-10,0 l-10,-5 l-10,5 l-3,0 l-5,-2 l-4,2 l-8,0 l5,-5 l3,0 l4,-7 l3,-3 l15,-5 l0,-10 l10,-10 Z" stroke-width="0.5" stroke="green" fill="purple" fill-opacity="0.6" />
</svg>

<?xml version="1.0" encoding="UTF-8"?>
<svg xmlns="http://www.w3.org/2000/svg" xmlns:xlink="http://www.w3.org/1999/xlink"
     width="250" height="250" viewBox="-125.0 -125.0 250 250">
<defs>
</defs>
<path d="M0,0 l20,-5 l15,5 l15,0 l0,-10 l-5,-10 l5,-10 l0,-3 l-2,-5 l2,-4 l0,-8 l-5,5 l0,3 l-7,4 l-3,3 l-5,15 l-10,0 Z" stroke-width="0.5" stroke="green" fill="yellow" fill-opacity="0.6" />
<path d="M0,0 l20,5 l15,-5 l15,0 l0,10 l-5,10 l5,10 l0,3 l-2,5 l2,4 l0,8 l-5,-5 l0,-3 l-7,-4 l-3,-3 l-5,-15 l-10,0 Z" stroke-width="0.5" stroke="green" fill="orange" fill-opacity="0.6" />
<path d="M0,0 l-20,-5 l-15,5 l-15,0 l0,-10 l5,-10 l-5,-10 l0,-3 l2,-5 l-2,-4 l0,-8 l5,5 l0,3 l7,4 l3,3 l5,15 l10,0 Z" stroke-width="0.5" stroke="green" fill="red" fill-opacity="0.6" />
<path d="M50,50 l5,-20 l-5,-15 l0,-15 l10,0 l10,5 l10,-5 l3,0 l5,2 l4,-2 l8,0 l-5,5 l-3,0 l-4,7 l-3,3 l-15,5 l0,10 Z" stroke-width="0.5" stroke="green" fill="purple" fill-opacity="0.6" />
<path d="M0,0 l5,-20 l-5,-15 l0,-15 l10,0 l10,5 l10,-5 l3,0 l5,2 l4,-2 l8,0 l-5,5 l-3,0 l-4,7 l-3,3 l-15,5 l0,10 Z" stroke-width="0.5" stroke="green" fill="blue" fill-opacity="0.6" />
<path d="M0,0 l5,20 l-5,15 l0,15 l10,0 l10,-5 l10,5 l3,0 l5,-2 l4,2 l8,0 l-5,-5 l-3,0 l-4,-7 l-3,-3 l-15,-5 l0,-10 Z" stroke-width="0.5" stroke="green" fill="green" fill-opacity="0.6" />
<path d="M0,0 l-20,5 l-15,-5 l-15,0 l0,10 l5,10 l-5,10 l0,3 l2,5 l-2,4 l0,8 l5,-5 l0,-3 l7,-4 l3,-3 l5,-15 l10,0 Z" stroke-width="0.5" stroke="green" fill="brown" fill-opacity="0.6" />
<path d="M0,100 l-5,-20 l5,-15 l0,-15 l-10,0 l-10,5 l-10,-5 l-3,0 l-5,2 l-4,-2 l-8,0 l5,5 l3,0 l4,7 l3,3 l15,5 l0,10 Z" stroke-width="0.5" stroke="green" fill="black" fill-opacity="0.6" />
<path d="M0,0 l-5,-20 l5,-15 l0,-15 l-10,0 l-10,5 l-10,-5 l-3,0 l-5,2 l-4,-2 l-8,0 l5,5 l3,0 l4,7 l3,3 l15,5 l0,10 Z" stroke-width="0.5" stroke="green" fill="pink" fill-opacity="0.6" />
<path d="M100,0 l-20,-5 l-15,5 l-15,0 l0,-10 l5,-10 l-5,-10 l0,-3 l2,-5 l-2,-4 l0,-8 l5,5 l0,3 l7,4 l3,3 l5,15 l10,0 Z" stroke-width="0.5" stroke="green" fill="yellow" fill-opacity="0.6" />
<path d="M-100,0 l20,-5 l15,5 l15,0 l0,-10 l-5,-10 l5,-10 l0,-3 l-2,-5 l2,-4 l0,-8 l-5,5 l0,3 l-7,4 l-3,3 l-5,15 l-10,0 Z" stroke-width="0.5" stroke="green" fill="orange" fill-opacity="0.6" />
<path d="M0,100 l5,-20 l-5,-15 l0,-15 l10,0 l10,5 l10,-5 l3,0 l5,2 l4,-2 l8,0 l-5,5 l-3,0 l-4,7 l-3,3 l-15,5 l0,10 Z" stroke-width="0.5" stroke="green" fill="red" fill-opacity="0.6" />
<path d="M0,-100 l5,20 l-5,15 l0,15 l10,0 l10,-5 l10,5 l3,0 l5,-2 l4,2 l8,0 l-5,-5 l-3,0 l-4,-7 l-3,-3 l-15,-5 l0,-10 Z" stroke-width="0.5" stroke="green" fill="purple" fill-opacity="0.6" />
<path d="M0,0 l-5,20 l5,15 l0,15 l-10,0 l-10,-5 l-10,5 l-3,0 l-5,-2 l-4,2 l-8,0 l5,-5 l3,0 l4,-7 l3,-3 l15,-5 l0,-10 Z" stroke-width="0.5" stroke="green" fill="blue" fill-opacity="0.6" />
<path d="M-100,0 l20,5 l15,-5 l15,0 l0,10 l-5,10 l5,10 l0,3 l-2,5 l2,4 l0,8 l-5,-5 l0,-3 l-7,-4 l-3,-3 l-5,-15 l-10,0 Z" stroke-width="0.5" stroke="green" fill="green" fill-opacity="0.6" />
<path d="M0,-100 l-5,20 l5,15 l0,15 l-10,0 l-10,-5 l-10,5 l-3,0 l-5,-2 l-4,2 l-8,0 l5,-5 l3,0 l4,-7 l3,-3 l15,-5 l0,-10 Z" stroke-width="0.5" stroke="green" fill="brown" fill-opacity="0.6" />
<path d="M0,0 L20,-5 L35,0" fill="blue" stroke="black" />
<path d="M0,0 L20,5 L35,0" fill="black" stroke="black" />
<path d="M10,-50 L20,-45 L30,-50" fill="blue" stroke="black" />
<path d="M35,-35 L20,-30 L20,-20" fill="blue" stroke="black" />
<path d="M10,50 L20,45 L30,50" fill="green" stroke="black" />
<path d="M35,35 L20,30 L20,20" fill="black" stroke="black" />
<path d="M10,50 L20,55 L30,50" fill="black" stroke="black" />
<path d="M35,65 L20,70 L20,80" fill="brown" stroke="black" />
<path d="M20,70 L20,80 L0,100" fill="orange" stroke="black" />
<path d="M10,-50 L20,-55 L30,-50" fill="green" stroke="black" />
<path d="M35,-65 L20,-70 L20,-80" fill="yellow" stroke="black" />
<path d="M20,-70 L20,-80 L0,-100" fill="orange" stroke="black" />
<path d="M38,62 L35,65 L20,70" fill="orange" stroke="black" />
<path d="M38,-62 L35,-65 L20,-70" fill="red" stroke="black" />
<path d="M50,0 L50,10 L45,20" fill="blue" stroke="black" />
<path d="M45,20 L50,30 L50,33" fill="blue" stroke="black" />
<path d="M50,30 L50,33 L48,38" fill="pink" stroke="black" />
<path d="M48,38 L50,42 L50,50" fill="black" stroke="black" />
<path d="M55,30 L50,15 L50,0" fill="black" stroke="black" />
<path d="M50,-10 L45,-20 L50,-30" fill="purple" stroke="black" />
<path d="M45,-45 L45,-42 L38,-38" fill="pink" stroke="black" />
<path d="M50,10 L45,20 L50,30" fill="green" stroke="black" />
<path d="M45,45 L45,42 L38,38" fill="brown" stroke="black" />
<path d="M50,50 L45,55 L42,55" fill="red" stroke="black" />
<path d="M50,-50 L45,-55 L42,-55" fill="green" stroke="black" />
<path d="M50,-33 L48,-38 L50,-42" fill="orange" stroke="black" />
<path d="M50,33 L48,38 L50,42" fill="blue" stroke="black" />
<path d="M33,-50 L38,-48 L42,-50" fill="green" stroke="black" />
<path d="M33,50 L38,48 L42,50" fill="red" stroke="black" />
<path d="M33,50 L38,52 L42,50" fill="purple" stroke="black" />
<path d="M42,55 L38,62 L35,65" fill="red" stroke="black" />
<path d="M33,-50 L38,-52 L42,-50" fill="brown" stroke="black" />
<path d="M42,-55 L38,-62 L35,-65" fill="orange" stroke="black" />
<path d="M35,-35 L30,-20 L20,-20" fill="orange" stroke="black" />
<path d="M35,35 L30,20 L20,20" fill="pink" stroke="black" />
<path d="M0,0 L-20,-5 L-35,0" fill="brown" stroke="black" />
<path d="M0,0 L-20,5 L-35,0" fill="brown" stroke="black" />
<path d="M-10,50 L-20,55 L-30,50" fill="purple" stroke="black" />
<path d="M-35,65 L-20,70 L-20,80" fill="yellow" stroke="black" />
<path d="M-20,70 L-20,80 L0,100" fill="pink" stroke="black" />
<path d="M-10,-50 L-20,-45 L-30,-50" fill="yellow" stroke="black" />
<path d="M-35,-35 L-20,-30 L-20,-20" fill="blue" stroke="black" />
<path d="M-10,50 L-20,45 L-30,50" fill="brown" stroke="black" />
<path d="M-35,35 L-20,30 L-20,20" fill="green" stroke="black" />
<path d="M-10,-50 L-20,-55 L-30,-50" fill="pink" stroke="black" />
<path d="M-35,-65 L-20,-70 L-20,-80" fill="red" stroke="black" />
<path d="M-20,-70 L-20,-80 L0,-100" fill="orange" stroke="black" />
<path d="M-38,62 L-35,65 L-20,70" fill="purple" stroke="black" />
<path d="M-38,-62 L-35,-65 L-20,-70" fill="blue" stroke="black" />
<path d="M-50,-10 L-45,-20 L-50,-30" fill="blue" stroke="black" />
<path d="M-45,-45 L-45,-42 L-38,-38" fill="purple" stroke="black" />
<path d="M-50,10 L-45,20 L-50,30" fill="green" stroke="black" />
<path d="M-45,45 L-45,42 L-38,38" fill="blue" stroke="black" />
<path d="M-50,50 L-45,55 L-42,55" fill="brown" stroke="black" />
<path d="M-50,-50 L-45,-55 L-42,-55" fill="red" stroke="black" />
<path d="M-50,-33 L-48,-38 L-50,-42" fill="blue" stroke="black" />
<path d="M-50,33 L-48,38 L-50,42" fill="blue" stroke="black" />
<path d="M-33,50 L-38,52 L-42,50" fill="red" stroke="black" />
<path d="M-42,55 L-38,62 L-35,65" fill="pink" stroke="black" />
<path d="M-33,-50 L-38,-48 L-42,-50" fill="yellow" stroke="black" />
<path d="M-33,50 L-38,48 L-42,50" fill="purple" stroke="black" />
<path d="M-33,-50 L-38,-52 L-42,-50" fill="black" stroke="black" />
<path d="M-42,-55 L-38,-62 L-35,-65" fill="orange" stroke="black" />
<path d="M-35,-35 L-30,-20 L-20,-20" fill="yellow" stroke="black" />
<path d="M-35,35 L-30,20 L-20,20" fill="yellow" stroke="black" />
<path d="M50,50 L55,30 L50,15" fill="brown" stroke="black" />
<path d="M50,-10 L55,-20 L50,-30" fill="black" stroke="black" />
<path d="M50,-50 L55,-45 L55,-42" fill="yellow" stroke="black" />
<path d="M55,-45 L55,-42 L62,-38" fill="black" stroke="black" />
<path d="M50,0 L60,0 L70,5" fill="red" stroke="black" />
<path d="M60,0 L70,5 L80,0" fill="black" stroke="black" />
<path d="M85,15 L70,20 L70,30" fill="green" stroke="black" />
<path d="M70,20 L70,30 L50,50" fill="blue" stroke="black" />
<path d="M65,-35 L70,-20 L80,-20" fill="brown" stroke="black" />
<path d="M70,5 L80,0 L83,0" fill="brown" stroke="black" />
<path d="M100,0 L80,-5 L65,0" fill="blue" stroke="black" />
<path d="M70,-20 L80,-20 L100,0" fill="green" stroke="black" />
<path d="M80,0 L83,0 L88,2" fill="red" stroke="black" />
<path d="M83,0 L88,2 L92,0" fill="orange" stroke="black" />
<path d="M92,5 L88,12 L85,15" fill="red" stroke="black" />
<path d="M88,2 L92,0 L100,0" fill="brown" stroke="black" />
<path d="M95,5 L92,5 L88,12" fill="black" stroke="black" />
<path d="M100,0 L95,5 L92,5" fill="orange" stroke="black" />
<path d="M88,12 L85,15 L70,20" fill="purple" stroke="black" />
<path d="M0,0 L5,-20 L0,-35" fill="red" stroke="black" />
<path d="M0,0 L5,20 L0,35" fill="red" stroke="black" />
<path d="M0,100 L5,80 L0,65" fill="orange" stroke="black" />
<path d="M0,-100 L5,-80 L0,-65" fill="yellow" stroke="black" />
<path d="M45,-45 L42,-45 L38,-38" fill="pink" stroke="black" />
<path d="M45,45 L42,45 L38,38" fill="blue" stroke="black" />
<path d="M45,55 L42,55 L38,62" fill="yellow" stroke="black" />
<path d="M45,-55 L42,-55 L38,-62" fill="yellow" stroke="black" />
<path d="M0,100 L-5,80 L0,65" fill="purple" stroke="black" />
<path d="M0,0 L-5,-20 L0,-35" fill="green" stroke="black" />
<path d="M0,0 L-5,20 L0,35" fill="purple" stroke="black" />
<path d="M0,-100 L-5,-80 L0,-65" fill="blue" stroke="black" />
<path d="M-45,55 L-42,55 L-38,62" fill="purple" stroke="black" />
<path d="M-45,-45 L-42,-45 L-38,-38" fill="pink" stroke="black" />
<path d="M-45,45 L-42,45 L-38,38" fill="brown" stroke="black" />
<path d="M-45,-55 L-42,-55 L-38,-62" fill="blue" stroke="black" />
<path d="M80,-5 L65,0 L50,0" fill="blue" stroke="black" />
<path d="M62,-38 L65,-35 L70,-20" fill="yellow" stroke="black" />
<path d="M50,-33 L52,-38 L50,-42" fill="brown" stroke="black" />
<path d="M55,-42 L62,-38 L65,-35" fill="green" stroke="black" />
<path d="M-100,0 L-80,-5 L-65,0" fill="red" stroke="black" />
<path d="M-70,-20 L-80,-20 L-100,0" fill="red" stroke="black" />
<path d="M-100,0 L-80,5 L-65,0" fill="pink" stroke="black" />
<path d="M-70,20 L-80,20 L-100,0" fill="brown" stroke="black" />
<path d="M-62,-38 L-65,-35 L-70,-20" fill="red" stroke="black" />
<path d="M-62,38 L-65,35 L-70,20" fill="black" stroke="black" />
<path d="M-50,-10 L-55,-20 L-50,-30" fill="yellow" stroke="black" />
<path d="M-50,-50 L-55,-45 L-55,-42" fill="yellow" stroke="black" />
<path d="M-55,-45 L-55,-42 L-62,-38" fill="black" stroke="black" />
<path d="M-50,10 L-55,20 L-50,30" fill="black" stroke="black" />
<path d="M-50,50 L-55,45 L-55,42" fill="orange" stroke="black" />
<path d="M-55,45 L-55,42 L-62,38" fill="yellow" stroke="black" />
<path d="M-50,-33 L-52,-38 L-50,-42" fill="purple" stroke="black" />
<path d="M-50,33 L-52,38 L-50,42" fill="purple" stroke="black" />
<path d="M-55,-42 L-62,-38 L-65,-35" fill="blue" stroke="black" />
<path d="M-55,42 L-62,38 L-65,35" fill="brown" stroke="black" />
<path d="M-65,-35 L-70,-20 L-80,-20" fill="blue" stroke="black" />
<path d="M-65,35 L-70,20 L-80,20" fill="orange" stroke="black" />
</svg>
